icons/star.svg

<svg width="24" height="24" viewBox="0 0 24 24" fill="none" xmlns="http://www.w3.org/2000/svg">
<path d="M7.62872 8.66199C8.15317 8.64754 8.61095 8.31506 8.7654 7.83581C9.35564 6.00155 10.1263 4.22476 11.051 2.54068C11.4596 1.81106 12.5499 1.82854 12.9488 2.54068C13.8786 4.22787 14.644 6.00183 15.2343 7.83581C15.3975 8.31177 15.8683 8.65399 16.371 8.66199C17.9609 8.70222 19.5456 8.86017 21.1122 9.13458C21.9733 9.2858 22.2955 10.2665 21.6844 10.8648C20.4991 12.0252 19.233 13.0998 17.8955 14.0806C17.4866 14.3797 17.3199 14.8923 17.4755 15.3615C18.0676 17.1423 18.4866 18.9661 18.7421 20.8401C18.8533 21.6797 17.9544 22.2723 17.1755 21.872C15.6285 21.0788 14.1494 20.1594 12.7532 19.1233C12.3157 18.8037 11.684 18.8037 11.2465 19.1233C9.85004 20.159 8.37099 21.0784 6.82427 21.872C6.04426 22.2723 5.14648 21.6797 5.25759 20.8401C5.50761 18.9783 5.9317 17.1441 6.52427 15.3615C6.67982 14.8923 6.51205 14.3797 6.10426 14.0806C4.76822 13.0986 3.49946 12.0309 2.31535 10.8648C1.70423 10.2665 2.02757 9.2858 2.88757 9.13458C4.45435 8.86177 6.03895 8.70382 7.62872 8.66199Z" stroke="black" stroke-width="2" stroke-linecap="round" stroke-linejoin="round"/>
</svg>

<svg xmlns="http://www.w3.org/2000/svg" width="24" height="24" viewBox="0 0 24 24" fill="none" stroke="currentColor" stroke-width="2" stroke-linecap="round" stroke-linejoin="round">
<path d="M7.629 8.662a1.22 1.22 0 0 0 1.136-.826 30.3 30.3 0 0 1 2.286-5.295c.409-.73 1.499-.712 1.898 0a30 30 0 0 1 2.285 5.295c.164.476.634.818 1.137.826a32 32 0 0 1 4.741.473c.861.15 1.184 1.132.572 1.73a35 35 0 0 1-3.789 3.216 1.14 1.14 0 0 0-.42 1.28 30.3 30.3 0 0 1 1.267 5.48c.111.839-.788 1.431-1.567 1.031a31.7 31.7 0 0 1-4.422-2.749 1.3 1.3 0 0 0-1.507 0 32 32 0 0 1-4.422 2.749c-.78.4-1.678-.192-1.566-1.032.25-1.862.674-3.696 1.266-5.478a1.14 1.14 0 0 0-.42-1.281 34.5 34.5 0 0 1-3.789-3.216c-.61-.598-.287-1.58.573-1.73a33 33 0 0 1 4.74-.473"/>
</svg>
